Sources/FrostedUI/Resources/Icons.xcassets/eye32.imageset/eye-32.svg

<svg width="32" height="32" viewBox="0 0 32 32" fill="none" xmlns="http://www.w3.org/2000/svg" data-fui-icon="true">
  <path
    d="M16.0005 4C20.9274 4.00017 24.7664 6.65946 27.4048 9.37793C30.0465 12.1 31.5653 14.9615 31.8677 15.5576C32.0101 15.8386 32.0102 16.1614 31.8677 16.4424C31.5653 17.0385 30.0465 19.9 27.4048 22.6221C24.7664 25.3405 20.9274 27.9998 16.0005 28C11.0736 28 7.23462 25.3405 4.59619 22.6221C1.95411 19.8997 0.434578 17.0382 0.132324 16.4424C-0.0102261 16.1613 -0.0102317 15.8387 0.132324 15.5576L0.303223 15.2334C0.832452 14.2496 2.28414 11.7602 4.59619 9.37793C7.23462 6.65946 11.0736 4 16.0005 4ZM16.0005 5.5C11.6448 5.5 8.16952 7.8499 5.67236 10.4229C3.44066 12.7224 2.05428 15.1371 1.59424 16C2.05428 16.8629 3.44066 19.2776 5.67236 21.5771C8.16952 24.1501 11.6448 26.5 16.0005 26.5C20.3561 26.4998 23.8315 24.1501 26.3286 21.5771C28.56 19.2779 29.9456 16.863 30.4058 16C29.9456 15.137 28.56 12.7221 26.3286 10.4229C23.8315 7.84992 20.3561 5.50017 16.0005 5.5ZM16.0005 9C19.8663 9.00025 23.0005 12.1342 23.0005 16C23.0005 19.8658 19.8663 22.9997 16.0005 23C12.1345 23 9.00049 19.866 9.00049 16C9.00049 12.134 12.1345 9 16.0005 9ZM16.0005 10.5C12.9629 10.5 10.5005 12.9624 10.5005 16C10.5005 19.0376 12.9629 21.5 16.0005 21.5C19.0378 21.4997 21.5005 19.0374 21.5005 16C21.5005 12.9626 19.0378 10.5003 16.0005 10.5Z"
    fill="currentColor"
  />
</svg>

<svg xmlns="http://www.w3.org/2000/svg" width="32" height="32" fill="none" data-fui-icon="true" viewBox="0 0 32 32"><path fill="currentColor" d="M16 4c4.927 0 8.766 2.66 11.405 5.378 2.642 2.722 4.16 5.583 4.463 6.18a.97.97 0 0 1 0 .884c-.303.596-1.821 3.458-4.463 6.18C24.766 25.34 20.927 28 16 28s-8.765-2.66-11.404-5.378C1.954 19.9.435 17.038.132 16.442a.97.97 0 0 1 0-.884l.171-.325c.53-.983 1.981-3.473 4.293-5.855C7.235 6.659 11.074 4 16 4m0 1.5c-4.355 0-7.83 2.35-10.328 4.923A26 26 0 0 0 1.594 16c.46.863 1.847 3.278 4.078 5.577C8.17 24.15 11.645 26.5 16 26.5c4.356 0 7.831-2.35 10.329-4.923A25.9 25.9 0 0 0 30.406 16a25.9 25.9 0 0 0-4.077-5.577C23.83 7.85 20.356 5.5 16 5.5M16 9a7 7 0 1 1 0 14 7 7 0 0 1 0-14m0 1.5a5.5 5.5 0 1 0 0 11 5.5 5.5 0 0 0 0-11"/></svg>
